images/icons/youtube-icon.svg

<svg width="32" height="32" viewBox="0 0 32 32" fill="none" xmlns="http://www.w3.org/2000/svg">
<path d="M2.24451 9.94111C2.37304 7.96233 3.96395 6.41157 5.94447 6.31345C8.81239 6.17136 12.9115 6 16 6C19.0885 6 23.1876 6.17136 26.0555 6.31345C28.0361 6.41157 29.627 7.96233 29.7555 9.94111C29.8786 11.8369 30 14.1697 30 16C30 17.8303 29.8786 20.1631 29.7555 22.0589C29.627 24.0377 28.0361 25.5884 26.0555 25.6866C23.1876 25.8286 19.0885 26 16 26C12.9115 26 8.81239 25.8286 5.94447 25.6866C3.96395 25.5884 2.37304 24.0377 2.24451 22.0589C2.12136 20.1631 2 17.8303 2 16C2 14.1697 2.12136 11.8369 2.24451 9.94111Z" fill="#FC0D1B"/>
<path d="M13 12V20L21 16L13 12Z" fill="white"/>
</svg>

<svg width="32" height="32" fill="none" xmlns="http://www.w3.org/2000/svg"><path d="M2.245 9.941a3.886 3.886 0 013.7-3.628C8.811 6.171 12.91 6 16 6c3.088 0 7.188.171 10.055.313a3.886 3.886 0 013.7 3.628C29.88 11.837 30 14.17 30 16s-.121 4.163-.244 6.059a3.886 3.886 0 01-3.7 3.628C23.188 25.829 19.087 26 16 26c-3.088 0-7.188-.171-10.056-.313a3.886 3.886 0 01-3.7-3.628C2.122 20.163 2 17.83 2 16s.121-4.163.245-6.059z" fill="#FC0D1B"/><path d="M13 12v8l8-4-8-4z" fill="#fff"/></svg>
